X: 10363
T: WALTZ No. 1.
%R: waltz
B: Elias Howe "The Musician's Companion" Part 1 1842 p.36 #3
S: http://imslp.org/wiki/The_Musician's_Companion_(Howe,_Elias)
Z: 2015 John Chambers <jc:trillian.mit.edu>
M: 3/8
L: 1/16
K: F
% - - - - - - - - - - - - - - - - - - - - - - - - -
f2 |\
f2a2c2 | c2f2A2 | B2g2f2 | e2c2f2 |\
f2a2c2 | c2f2a2 | g2gfga | f4 :: c'2 |\
c'4a2 | a4f2 | g2gfga | f2a2c2 |\
c'4a2 | a4f2 | g2gfga | f4 :|
% - - - - - - - - - - - - - - - - - - - - - - - - -
